-----BEGIN PGP PUBLIC KEY BLOCK-----

xsBNBGVT8QABCACwFdmyZ5HpTemG6uAs8DoLWnVkM98ubiPaT4oQuZgYCY8b0Ax7
D1L4FgFfvCEUSb15Ini4LGYMIHlJNTOXL72bAt/Fx5lfSPinXJgJ6MLCdPms2uI6
bLW1zKXr+CUjszgJ/yRZti+avGyCCB4BUz8UP9zg9z8IOBGjycW7C8jBxpA44BpF
7QcQc8WqJ+6GMnpj4It9FO5540zZNE6jj337MThPUOPe/UhM97hxgHpYCU4/yatu
esAyyMYChreLx2+5fX0tGkZ1DI1AUSBl4vyvdGw4yPbvK9YDlUATAtsJwltrYLVk
f/RCFtOYl8ujf+alqQ5npNLixTGl6Pe4mMnbABEBAAHNF1JldG9uciB0ZXN0IHJl
bGVhc2Uga2V5wsCEBBMBCAAuBQJqjwVUFiEE9Y7S5lTOkJQxVVVjhsCpBfEV7AUC
GwMCHgEBCwEVARYBJwIZAQAKCRCGwKkF8RXsBa7cCACOcpM7vwpbBn3r4f7ScAvL
dM6fgYcqx377P7ANHsllZStZBBgLO72SS0P7X4czBBWuywHamIyrXuD++YfZcyPL
V9qKB/RGkGhkteoHV0tPPZDr6NzKVrAuXsRO9aqR78Q7T2OP2Aj1IukfnD4uvJio
AX2/r8OP0H3PRDS7EGSDP4lNxqJ9uapubGQmYdxLQ2hF6J+FICT16OCpBWRaSLKa
TsfWSBBLfgYJT9xATQiypz75s0ODCxQOsknxFL6Ibj1f5gCrbeDEu+8fXLW5Bw5K
JmvC8l44FesPbednwC8kuCtXPMFIfr0IAhoiFpKufxBqPPY0vWZ/vDvRl5NVDm83
=oyKA
-----END PGP PUBLIC KEY BLOCK-----
